X: 21980
T: Kitty O'Shea's
R: barndance
M: 4/4
K: Amajor
|:AB|c2cB c2cB|c2cf ecBA|B2 BA B2 BA|Bagf (3efe (3dcB|
c2cB c2cB|c2cf ecBA|~c3A ~B3a|(3gfe (3dcB A2:|
|:AB|c2ac c2ac|d2b2 B3c|dcde fgaf|(3efe (3dcB c2 AB|
c2ac c2ac|d2b2 B3c|dcde fgaf|(3efe (3dcB A2:|
|:AB|cffg fedB|cffg fedB|cffg fefg|aecA B2:|
|:Az|A,C2E A2Ad|cAce fga2|A,C2E A2Ad|cBAc B3z|
A,C2E A2Ad|cAce fga2|(3agf (3gfe (3fed (3edc|(3dcB (3cBG A2:|
|:=f2|f2fa fecA|[E2A2][EA][DA] [E3A3][EA]|[F2A2][EA][FA] [EA]dcB|AEAc e2=f2|
f2fa fecA|[E2A2][EA][DA] [E3A3][EA]|[F2A2][EA][FA] [EA]dcB|A4A2:|
|:Dz|EccE cEcE|EccB cBAc|BggB gBgB|Bggf gfeB|
EccE cEcE|EccB cBAc|BggB Bgba|(3gfe (3dcB A2:|
|:Bc|fe c2 fe c2|fAca fecd|f2{g}fe dcBA|BAGF E3z|
fe c2 fe c2|fAca fecd|f2{g}fe dcBA|GABG A2:|

